X: 40
T:Mrs Casey - Kirtlington
S:OY (AB)4
N:Tune as played for Grand Union Morris
M:6/8
L:1/8
K:D
"A" fe|d2 B BcB|A2 F A2 A|BcA   Bcd|g3 f2 e|d2 B BcB|A 2 FA3|
Bcd e2 c|d3 d2||
"B" d | d2 e f2 g|a2 b a3|d2 e f2  g|a3 a3|b2 g a2 f|g2 f e2 d|
d2 c B2 A|g3 f2 e|d2 B BcB|A2 F A2 A|BcA   Bcd|g3 f2 e|d2 B BcB|A2 FA3|
Bcd e2 c|d3 d2 ;||
